svg/color/xtz.svg

<svg width="64" height="65" viewBox="0 0 64 65" fill="none" xmlns="http://www.w3.org/2000/svg">
<rect y="0.303711" width="64" height="64" rx="32" fill="#2C7DF7"/>
<rect x="0.5" y="0.803711" width="63" height="63" rx="31.5" stroke="#070B14" stroke-opacity="0.15"/>
<path d="M36.1361 51.5037C33.3959 51.5037 31.3959 50.8437 30.136 49.5237C28.9688 48.4063 28.2915 46.8723 28.2521 45.257C28.2379 44.7663 28.3516 44.2803 28.5821 43.8469C28.7971 43.4723 29.1076 43.1615 29.482 42.9463C29.9171 42.7293 30.3967 42.6163 30.883 42.6163C31.3693 42.6163 31.8489 42.7293 32.284 42.9463C32.6577 43.1607 32.9668 43.4718 33.1788 43.8469C33.4159 44.2782 33.5339 44.765 33.5206 45.257C33.5451 45.8447 33.3766 46.4242 33.0407 46.907C32.7607 47.3012 32.3606 47.594 31.9003 47.7416C32.3504 48.3147 32.9874 48.7118 33.7002 48.8637C34.4977 49.0953 35.3237 49.2144 36.1542 49.2176C37.2537 49.2271 38.3305 48.9052 39.2443 48.2936C40.1922 47.6239 40.8991 46.6666 41.2603 45.5636C41.718 44.2509 41.9414 42.8679 41.9203 41.4778C41.9572 40.0285 41.7127 38.5858 41.2002 37.2297C40.8148 36.145 40.0832 35.2173 39.1182 34.5897C38.2213 34.0221 37.1801 33.7243 36.1187 33.7317C35.1939 33.8101 34.3021 34.1129 33.5206 34.6138L31.5941 35.5797V34.6138L40.2521 22.999H28.2521V35.0518C28.2182 35.9215 28.4483 36.7812 28.9121 37.5177C29.1365 37.8387 29.44 38.0963 29.7932 38.2655C30.1464 38.4347 30.5373 38.5099 30.9281 38.4836C31.6501 38.469 32.3483 38.223 32.9199 37.7817C33.5679 37.3068 34.1317 36.7268 34.588 36.0656C34.6291 35.9497 34.7048 35.8492 34.805 35.7778C34.8854 35.7083 34.988 35.67 35.0943 35.6698C35.3027 35.6889 35.5 35.7727 35.6583 35.9097C35.8589 36.1338 35.968 36.4249 35.9642 36.7256C35.9411 36.9277 35.905 37.1281 35.8562 37.3256C35.43 38.3574 34.7154 39.2445 33.7981 39.8808C32.9461 40.4573 31.9399 40.763 30.9112 40.7577C28.3131 40.7577 26.5132 40.2458 25.5115 39.2218C24.9967 38.6558 24.5999 37.9928 24.3444 37.2716C24.0889 36.5504 23.9798 35.7855 24.0235 35.0216V22.999H17.9199V20.7596H24.0519V15.6536L22.648 14.2488V13.1038H26.7219L28.2521 13.8959V20.7596L44.104 20.7114L45.6822 22.2954L35.9621 32.0627C36.5493 31.8265 37.1677 31.6769 37.798 31.6187C39.0453 31.6733 40.2624 32.0207 41.3506 32.6328C42.6108 33.2318 43.6729 34.1795 44.4109 35.3637C45.0721 36.3661 45.5402 37.4833 45.7909 38.6577C45.9971 39.584 46.1077 40.5291 46.1209 41.478C46.1273 43.289 45.7167 45.0771 44.9209 46.7038C44.1662 48.2791 42.896 49.5493 41.3208 50.304C39.7083 51.0986 37.9337 51.5092 36.1361 51.5037Z" fill="white"/>
</svg>

<svg xmlns="http://www.w3.org/2000/svg" width="64" height="65" fill="none" viewBox="0 0 64 65"><rect width="64" height="64" y=".304" fill="#2C7DF7" rx="32"/><rect width="63" height="63" x=".5" y=".804" stroke="#070B14" stroke-opacity=".15" rx="31.5"/><path fill="#fff" d="M36.136 51.504q-4.11 0-6-1.98a6.1 6.1 0 0 1-1.884-4.267c-.014-.49.1-.977.33-1.41a2.44 2.44 0 0 1 .9-.9 3.14 3.14 0 0 1 2.802 0 2.4 2.4 0 0 1 .895.9c.237.431.355.918.342 1.41a2.7 2.7 0 0 1-.48 1.65 2.24 2.24 0 0 1-1.14.835c.45.573 1.086.97 1.8 1.122.797.231 1.623.35 2.453.354a5.47 5.47 0 0 0 3.09-.924 5.4 5.4 0 0 0 2.016-2.73c.458-1.313.681-2.696.66-4.086a11.2 11.2 0 0 0-.72-4.248 5.24 5.24 0 0 0-2.082-2.64 5.54 5.54 0 0 0-3-.858 5.7 5.7 0 0 0-2.597.882l-1.927.966v-.966l8.658-11.615h-12v12.053c-.034.87.196 1.73.66 2.466a2.27 2.27 0 0 0 2.016.966 3.37 3.37 0 0 0 1.992-.702 7.2 7.2 0 0 0 1.668-1.716.6.6 0 0 1 .217-.288.44.44 0 0 1 .29-.108 1 1 0 0 1 .563.24c.2.224.31.515.306.816a5 5 0 0 1-.108.6 5.8 5.8 0 0 1-2.058 2.555 5.1 5.1 0 0 1-2.887.877q-3.897 0-5.4-1.536a5.75 5.75 0 0 1-1.488-4.2V22.999H17.92v-2.24h6.132v-5.105l-1.404-1.405v-1.145h4.074l1.53.792v6.864l15.852-.049 1.578 1.584-9.72 9.768a6.5 6.5 0 0 1 1.836-.444 7.96 7.96 0 0 1 3.553 1.014 7.3 7.3 0 0 1 3.06 2.73 9.6 9.6 0 0 1 1.38 3.295c.206.926.317 1.871.33 2.82.006 1.811-.404 3.6-1.2 5.226a7.66 7.66 0 0 1-3.6 3.6 11.65 11.65 0 0 1-5.185 1.2"/></svg>
